X: 2
T: Amerikaturen
O: efter Rag Jonsson [6/96]
C: Sven Nyhus
R: R\oros-pols
N: efter Rag Jonsson [6/96]
S: Karen Myers
M: 3/4
L: 1/8
K: D
|: "D"D2 ~F2 D>F | "G"G2 ((3AGA) (B2 | "A"A2) (A<E) ^C>E |1,3 "D"D2 ((3EDE) F>F :|2,4 "D"D2 D4 :|
|: "D"[A2D2] (Tf>e) d>c | "G"B2 (g<f) e>d | "A"c2 (c<A) Bc | "D"d2 ((3ede) f2- |
|  "D"[f2A2] (Tf<e) d>c | "G"B2 (g<f) e>d | "A"c2 (c<A) Bc | "D"d2 d4 :|
